X: 2010
T: Yâd Eller Aldı Beni
C: Sadettin Kaynak
O: Turkey
F: http://compmusic.upf.edu/node/140
N: hicaz--sarki--turkaksagi--yadeller_aldi--sadettin_kaynak
N: makam= hicaz
N: form= sarki
N: usul= turkaksagi = 5/8
M: 5/8
L: 1/16
K: C _7/8B ^f ^c 
Q: 1/4=144
%%MIDI tuningsystem comma53
cdcd e4 ed | {e}d8z2  | {z}dede =f4 ed | \
w:  ARANAĞME  |   |   | 
c8z2  | {z}BcBc d4 cB | 
w:   |   | 
B8z2  | {z}ABAB c4 BA | A4{z}AB cde2  | \
w:   |   |  SAZ  | 
cdcd e4 ed | 
w:  ARANAĞME  | 
{e}d8z2  | {z}dede =f4 ed | c8z2  | {z}BcBc d4 cB | \
w:   |   |   |   | 
B8z2  | {z}ABAB c4 BA | 
w:   |   | 
{z}A3/2c/ BAGA Bcd2  | {z}c2d2 e4 ed | d8-d2  | \
w:  SAZ  |  Yâd  *  el  |  ler   | 
{z}dcde c4 B2 | 
w:  al *  *  *  dı   | 
{z}cB Bdd6  | {z}c2d2 e4 ed | d8-d2  | {z}dcde c4 B2 | \
w:  be *  *  *  ni    |  Taş *  la  |  ra   |  çal *  *  *  dı   | 
{z}cB Bdd6  | 
w:  be *  *  *  ni    | 
{z}c2d2 e6 | {z}e2 d2g4g=f  | =f2e2 dcBA dc | \
w:  Yâr *  dan   |  a *  yır  |  dı  *  fe  | 
c4{dz}c2 B2A2  | {z}B2AB A2A2 G2 | 
w:  lek   *  SAZ  |  Gur *  *  be  | 
A2 B2c2 B2cd  | cBAB A6 | {z}A4AB cde2  | \
w:  te  *  sal  |  dı  *  *  *  be  |  ni   SAZ  | 
c2d2 e6 | {z}e2 d2g4g=f  | 
w:  Yâr *  dan   |  a *  yır  | 
=f2e2 dcBA dc | c4{dz}c2 B2A2  | {z}B2AB A2A2 G2 | \
w:  dı  *  fe  |  lek   *  SAZ  |  Gur *  *  be  | 
A2 B2c2 B2cd  | 
w:  te  *  sal  | 
cBAB A6 | {zz}A3/2c/ BAGA Bcd2  | {c}d4 d2d4 | \
w:  dı  *  *  *  be  |  ni   SAZ  |  *  Yol  ve rin   | 
{z}d3/2c/ de{e}d2 c2B2  | 
w:  SAZ  | 
{z}d2c2 B2A2 Bd | c4c2 B2A2  | {z}A2B2 c2B2 cd | \
w:  ge *  çe  |  yim    |  Du *  man  | 
cB ABA6  | 
w:  lı  *  *  *  dağ  | 
{z}A8-A2 | {z}A3/2c/ BAGA Bcd2  | {cz}d4 d2d4 | \
w:  lar    |  SAZ  |  *  Dağ la rın   | 
{z}d3/2c/ de{e}d2 c2B2  | 
w:  SAZ  | 
d2c2 B2A2 Bd | c4c2 B2A2  | {z}A2B2 c2B2 cd | \
w:  ar *  dın  |  dan    |  Naz *  lı   | 
cB ABA6  | 
w:  yâr  *  *  *  ağ  | 
A8-A2 | {z}cd cde4ed  | {e}d8 z2 | {z}de de=f4ed  | \
w:  lar    |  ARANAĞME  |   |   | 
c8 z2 | {z}Bc Bcd4cB  | 
w:   |   | 
B8 z2 | {z}AB ABc4BA  | A4 {z}ABcd e2 | \
w:   |   |  SAZ  | 
cd cde4ed  | 
w:  ARANAĞME  | 
{e}d8 z2 | {z}de de=f4ed  | c8 z2 | {z}Bc Bcd4cB  | \
w:   |   |   |   | 
B8 z2 | {z}AB ABc4BA  | 
w:   |   | 
{z}A3/2c/BA GABc d2 | {z}c2 d2e4ed  | d8-d2 | \
w:  SAZ  |  Yâd  *  el  |  ler   | 
{z}dc dec4B2  | 
w:  al *  *  *  dı   | 
{z}cBBd d6 | {z}c2 d2e4ed  | d8-d2 | {z}dc dec4B2  | \
w:  be *  *  *  ni    |  Taş *  la  |  ra   |  çal *  *  *  dı   | 
{z}cBBd d6 | 
w:  be *  *  *  ni    | 
{z}c2 d2e6  | {z}e2d2 g4 g=f | =f2 e2dc BAdc  | \
w:  Yâr *  dan   |  a *  yır  |  dı  *  fe  | 
c4 {dz}c2B2 A2 | {z}B2 ABA2 A2G2  | 
w:  lek   *  SAZ  |  Gur *  *  be  | 
A2B2 c2B2 cd | cB ABA6  | {z}A4 ABcd e2 | \
w:  te  *  sal  |  dı  *  *  *  be  |  ni   SAZ  | 
c2 d2e6  | {z}e2d2 g4 g=f | 
w:  Yâr *  dan   |  a *  yır  | 
=f2 e2dc BAdc  | c4 {dz}c2B2 A2 | {z}B2 ABA2 A2G2  | \
w:  dı  *  fe  |  lek   *  SAZ  |  Gur *  *  be  | 
A2B2 c2B2 cd | 
w:  te  *  sal  | 
cB ABA6  | {zz}A3/2c/BA GABc d2 | {c}d4d2 d4  | \
w:  dı  *  *  *  be  |  ni   SAZ  |  *  Yol  ve rin   | 
{z}d3/2c/de {e}d2c2 B2 | 
w:  SAZ  | 
{z}d2 c2B2 A2Bd  | c4 c2B2 A2 | {z}A2 B2c2 B2cd  | \
w:  ge *  çe  |  yim    |  Du *  man  | 
cBAB A6 | 
w:  lı  *  *  *  dağ  | 
{z}A8-A2  | {z}A3/2c/BA GABc d2 | {cz}d4d2 d4  | \
w:  lar    |  SAZ  |  *  Dağ la rın   | 
{z}d3/2c/de {e}d2c2 B2 | 
w:  SAZ  | 
d2 c2B2 A2Bd  | c4 c2B2 A2 | {z}A2 B2c2 B2cd  | \
w:  ar *  dın  |  dan    |  Naz *  lı   | 
cBAB A6 | 
w:  yâr  *  *  *  ağ  | 
A8-A2  | |


